ui/StatusQ/src/assets/img/icons/tiny/community.svg

<svg fill="none" height="16" viewBox="0 0 16 16" width="16" xmlns="http://www.w3.org/2000/svg"><path clip-rule="evenodd" d="m10 14c1.1046 0 2-.8954 2-2 1.1046 0 2-.8954 2-2v-6c0-1.10457-.8954-2-2-2-5.52285 0-10 4.47715-10 10 0 1.1046.89543 2 2 2zm-5.5-2c-.27614 0-.50162-.2245-.48462-.5001.24794-4.01993 3.46459-7.23658 7.48452-7.48452.2756-.017.5001.20848.5001.48462v1c0 .27614-.2246.49783-.4998.52052-2.91507.24042-5.23926 2.56461-5.47968 5.47968-.02269.2752-.24438.4998-.52052.4998zm7.5-3.5c0-.27614-.225-.50328-.499-.46918-1.81017.22527-3.24491 1.66001-3.47018 3.47018-.0341.274.19304.499.46918.499h1c.27614 0 .49359-.2273.5617-.4949.18-.7069.7365-1.2634 1.4434-1.4434.2676-.06811.4949-.28556.4949-.5617z" fill="#000" fill-rule="evenodd"/></svg>

<svg width="16" height="16" viewBox="0 0 16 16" fill="none" xmlns="http://www.w3.org/2000/svg">
<path fill-rule="evenodd" clip-rule="evenodd" d="M10 14C11.1046 14 12 13.1046 12 12C13.1046 12 14 11.1046 14 10V4C14 2.89543 13.1046 2 12 2C6.47715 2 2 6.47715 2 12C2 13.1046 2.89543 14 4 14H10ZM4.5 12C4.22386 12 3.99838 11.7755 4.01538 11.4999C4.26332 7.47997 7.47997 4.26332 11.4999 4.01538C11.7755 3.99838 12 4.22386 12 4.5V5.5C12 5.77614 11.7754 5.99783 11.5002 6.02052C8.58513 6.26094 6.26094 8.58513 6.02052 11.5002C5.99783 11.7754 5.77614 12 5.5 12H4.5ZM12 8.5C12 8.22386 11.775 7.99672 11.501 8.03082C9.69083 8.25609 8.25609 9.69083 8.03082 11.501C7.99672 11.775 8.22386 12 8.5 12H9.5C9.77614 12 9.99359 11.7727 10.0617 11.5051C10.2417 10.7982 10.7982 10.2417 11.5051 10.0617C11.7727 9.99359 12 9.77614 12 9.5V8.5Z" fill="black"/>
</svg>
